packages/ui-icons/src/Service-logos/24/Radiomenu.svg

<svg viewBox="0 0 32 32" fill="none" xmlns="http://www.w3.org/2000/svg">
<path d="M16 28C22.6274 28 28 22.6274 28 16C28 9.37258 22.6274 4 16 4C9.37258 4 4 9.37258 4 16C4 22.6274 9.37258 28 16 28Z" fill="white"/>
<path d="M15.0907 9.06232C17.3974 9.05804 19.2634 7.19202 19.2675 4.8855C19.2673 4.7359 19.2356 4.59515 19.2196 4.44977C18.1936 4.16425 17.117 4 16 4C14.9354 4 13.9086 4.15222 12.9257 4.41241C12.9527 4.56622 12.9684 4.72388 12.9684 4.8855C12.968 6.42535 11.7201 7.67395 10.1802 7.67395C9.4173 7.67395 8.72742 7.36627 8.224 6.87006C7.79456 7.23614 7.39557 7.63489 7.02161 8.05731C7.74896 8.67389 8.67792 9.06042 9.70715 9.06232H15.0907Z" fill="url(#paint0_linear_192_10309)"/>
<path d="M19.9323 22.9351H14.5483C12.4098 22.9384 10.67 24.548 10.4218 26.62C11.0066 26.9278 11.6199 27.1875 12.2568 27.3966C12.2468 27.3021 12.2327 27.2087 12.2327 27.1115C12.2332 25.5712 13.4811 24.3232 15.0214 24.3228C16.5617 24.3228 17.8096 25.5712 17.8101 27.1115C17.8101 27.3746 17.765 27.6255 17.6964 27.8665C19.9381 27.5484 21.9844 26.624 23.6486 25.2458C22.9613 23.8818 21.5647 22.9376 19.9323 22.9351Z" fill="url(#paint1_linear_192_10309)"/>
<path d="M16.8893 27.9551C17.0065 27.697 17.0776 27.4135 17.0781 27.1115C17.0765 25.975 16.1577 25.0563 15.0214 25.0547C13.8849 25.0563 12.9663 25.975 12.9647 27.1115C12.9649 27.2862 12.9915 27.4537 13.0333 27.6153C13.9838 27.8575 14.9741 28.0001 16 28.0001" fill="url(#paint2_linear_192_10309)"/>
<path d="M12.2368 4.88556C12.2366 4.79486 12.2178 4.70953 12.2061 4.62207C10.9712 5.03375 9.83008 5.64301 8.81042 6.40863C9.17462 6.73621 9.65143 6.94128 10.1802 6.94208C11.3158 6.94043 12.2351 6.02179 12.2368 4.88556Z" fill="url(#paint3_linear_192_10309)"/>
<path d="M27.3196 12.0466C26.1222 8.61951 23.42 5.90814 19.9992 4.69727V4.74756C19.9992 4.76416 19.9966 4.78015 19.9942 4.79633C19.9949 4.82635 19.9987 4.85541 19.9987 4.88562C19.9987 7.59644 17.8015 9.79364 15.0907 9.79413L9.70715 9.79364C8.49939 9.79364 7.40802 9.3407 6.55304 8.61731C5.75232 9.64044 5.11743 10.7958 4.68042 12.0466C4.24738 13.2862 4 14.6128 4 16.0001C4 17.3875 4.24738 18.7141 4.68042 19.9536C5.59778 22.5793 7.39777 24.7831 9.7298 26.2175C10.151 23.9346 12.1434 22.2032 14.5483 22.2032H19.9323C21.7067 22.2032 23.2473 23.1537 24.1094 24.5647V20.5038C24.1094 20.3015 24.2727 20.1379 24.4746 20.1379C24.6768 20.1379 24.8403 20.3015 24.8403 20.5038V24.0947C25.9277 22.9078 26.7775 21.5052 27.3196 19.9536C27.7526 18.7141 28 17.3875 28 16.0001C28 14.6128 27.7526 13.2862 27.3196 12.0466ZM25.1961 18.7662C25.1961 19.1757 24.8642 19.5071 24.4553 19.5071C24.046 19.5071 23.7139 19.1757 23.7139 18.7662C23.7139 18.3571 24.046 18.0252 24.4553 18.0252C24.8642 18.0252 25.1961 18.3571 25.1961 18.7662ZM22.0341 6.9126C22.4436 6.9126 22.7755 7.24432 22.7755 7.65332C22.7755 8.06262 22.4436 8.39478 22.0341 8.39478C21.6254 8.39478 21.2933 8.06262 21.2933 7.65332C21.2933 7.24432 21.6254 6.9126 22.0341 6.9126ZM17.5115 20.9072L12.1274 20.9065C11.0461 20.9065 10.0553 20.5461 9.24426 19.9536C8.02222 19.061 7.21936 17.6279 7.21893 15.9987C7.21936 14.3711 8.02045 12.9396 9.24017 12.0466C10.0519 11.4523 11.0441 11.0903 12.1274 11.0901H17.5115C18.5946 11.0903 19.5867 11.4523 20.3985 12.0466C20.9164 12.4258 21.3522 12.902 21.6881 13.4514V12.0466V9.39056C21.6881 9.18866 21.8517 9.02509 22.0543 9.02509C22.2555 9.02509 22.4196 9.18866 22.4196 9.39056V12.0466V15.8601C22.4196 15.8762 22.4124 15.8899 22.4104 15.9055C22.411 15.9373 22.4198 15.9668 22.4198 15.9987H22.4193C22.4193 17.6282 21.6168 19.0609 20.395 19.9536C19.5839 20.5463 18.593 20.9069 17.5115 20.9072Z" fill="url(#paint4_linear_192_10309)"/>
<path opacity="0.8" d="M22.4196 12.0464V15.8599C22.4196 15.876 22.4124 15.8896 22.4104 15.9052C22.411 15.937 22.4198 15.9666 22.4198 15.9985H22.4193C22.4193 17.6279 21.6168 19.0607 20.395 19.9534H27.3196C27.7526 18.7138 28 17.3872 28 15.9999C28 14.6125 27.7526 13.2859 27.3196 12.0464H22.4196ZM24.4553 19.5069C24.046 19.5069 23.7139 19.1755 23.7139 18.7659C23.7139 18.3569 24.046 18.025 24.4553 18.025C24.8642 18.025 25.1961 18.3569 25.1961 18.7659C25.1961 19.1755 24.8642 19.5069 24.4553 19.5069Z" fill="#74EBEB"/>
<path opacity="0.8" d="M21.6881 13.4511V12.0464H20.3985C20.9164 12.4255 21.3522 12.9017 21.6881 13.4511Z" fill="#74EBEB"/>
<path opacity="0.8" d="M9.24426 19.9534C8.02222 19.0607 7.21936 17.6277 7.21893 15.9985C7.21936 14.3708 8.02045 12.9394 9.24017 12.0464H4.68042C4.24738 13.2859 4 14.6125 4 15.9999C4 17.3872 4.24738 18.7138 4.68042 19.9534H9.24426Z" fill="#74EBEB"/>
<path d="M9.81189 15.9988C9.81262 17.5387 11.0607 18.7868 12.6011 18.7868C14.1409 18.7868 15.389 17.5387 15.389 15.9988C15.389 14.4578 14.1409 13.2104 12.6011 13.2097C11.0607 13.2104 9.81262 14.4578 9.81189 15.9988ZM14.6575 15.9988C14.6556 17.1342 13.7366 18.0535 12.6011 18.0554C11.4646 18.0535 10.546 17.1342 10.5436 15.9988C10.546 14.8624 11.4646 13.9438 12.6011 13.9412C13.7366 13.9438 14.6556 14.8624 14.6575 15.9988Z" fill="#00AFDC"/>
<path d="M12.6011 18.0554C13.7366 18.0535 14.6556 17.1342 14.6575 15.9988C14.6556 14.8624 13.7366 13.9438 12.6011 13.9412C11.4646 13.9438 10.546 14.8624 10.5436 15.9988C10.546 17.1342 11.4646 18.0535 12.6011 18.0554Z" fill="white"/>
<path d="M17.286 14.8081H18.8825C19.0842 14.8081 19.2482 14.644 19.2482 14.4421C19.2482 14.2397 19.0842 14.0764 18.8825 14.0764H17.286C17.0843 14.0764 16.9203 14.2397 16.9203 14.4421C16.9203 14.644 17.0843 14.8081 17.286 14.8081Z" fill="#00AFDC"/>
<path d="M17.2867 16.4097H18.8828C19.0849 16.4097 19.2482 16.2464 19.2482 16.0444C19.2482 15.8423 19.0849 15.6782 18.8828 15.6782H17.2867C17.0841 15.6782 16.9208 15.8423 16.9208 16.0444C16.9208 16.2464 17.0841 16.4097 17.2867 16.4097Z" fill="#00AFDC"/>
<path d="M18.8823 17.2808H17.2863C17.0841 17.2808 16.9208 17.4451 16.9208 17.6472C16.9208 17.8486 17.0841 18.0127 17.2863 18.0127H18.8823C19.0844 18.0127 19.2487 17.8486 19.2487 17.6472C19.2487 17.4451 19.0844 17.2808 18.8823 17.2808Z" fill="#00AFDC"/>
<defs>
<linearGradient id="paint0_linear_192_10309" x1="3.9754" y1="16.4867" x2="34.2829" y2="-13.8208" gradientUnits="userSpaceOnUse">
<stop stop-color="#00AFDC"/>
<stop offset="1" stop-color="#01DBDB"/>
</linearGradient>
<linearGradient id="paint1_linear_192_10309" x1="7.65661" y1="34.6757" x2="36.2351" y2="6.09717" gradientUnits="userSpaceOnUse">
<stop stop-color="#00AFDC"/>
<stop offset="1" stop-color="#01DBDB"/>
</linearGradient>
<linearGradient id="paint2_linear_192_10309" x1="11.7661" y1="30.2686" x2="22.1202" y2="19.9144" gradientUnits="userSpaceOnUse">
<stop stop-color="#00AFDC"/>
<stop offset="1" stop-color="#01DBDB"/>
</linearGradient>
<linearGradient id="paint3_linear_192_10309" x1="7.61763" y1="8.9784" x2="17.5547" y2="-0.958683" gradientUnits="userSpaceOnUse">
<stop stop-color="#00AFDC"/>
<stop offset="1" stop-color="#01DBDB"/>
</linearGradient>
<linearGradient id="paint4_linear_192_10309" x1="-4.75765" y1="36.8104" x2="60.2545" y2="-28.2018" gradientUnits="userSpaceOnUse">
<stop stop-color="#00AFDC"/>
<stop offset="1" stop-color="#01DBDB"/>
</linearGradient>
</defs>
</svg>

<svg viewBox="0 0 32 32" fill="none" xmlns="http://www.w3.org/2000/svg"><path d="M16 28c6.627 0 12-5.373 12-12S22.627 4 16 4 4 9.373 4 16s5.373 12 12 12Z" fill="#fff"/><path d="M15.09 9.062a4.182 4.182 0 0 0 4.177-4.176c0-.15-.031-.29-.047-.436A11.98 11.98 0 0 0 16 4c-1.065 0-2.091.152-3.074.412A2.789 2.789 0 0 1 8.224 6.87c-.43.366-.828.765-1.202 1.187a4.148 4.148 0 0 0 2.685 1.005h5.384Z" fill="url(#a)"/><path d="M19.932 22.935h-5.384c-2.138.003-3.878 1.613-4.126 3.685.585.308 1.198.567 1.835.777-.01-.095-.024-.188-.024-.285a2.79 2.79 0 0 1 5.577 0c0 .263-.045.514-.114.755a11.944 11.944 0 0 0 5.953-2.621c-.688-1.364-2.084-2.308-3.717-2.31Z" fill="url(#b)"/><path d="M16.89 27.955a2.04 2.04 0 0 0 .188-.843 2.058 2.058 0 0 0-2.057-2.057 2.058 2.058 0 0 0-2.056 2.056c0 .175.027.343.068.504.95.243 1.941.385 2.967.385" fill="url(#c)"/><path d="M12.237 4.886c0-.091-.02-.176-.03-.264A11.947 11.947 0 0 0 8.81 6.41c.365.327.841.532 1.37.533a2.059 2.059 0 0 0 2.057-2.056Z" fill="url(#d)"/><path d="M27.32 12.047A12.014 12.014 0 0 0 20 4.697v.05c0 .017-.003.033-.006.05 0 .03.005.058.005.089a4.908 4.908 0 0 1-4.908 4.908H9.707c-1.208 0-2.299-.453-3.154-1.177a11.96 11.96 0 0 0-1.873 3.43A11.955 11.955 0 0 0 4 16c0 1.387.247 2.714.68 3.954a12.016 12.016 0 0 0 5.05 6.264 4.903 4.903 0 0 1 4.818-4.015h5.384c1.775 0 3.315.95 4.177 2.362v-4.061a.365.365 0 1 1 .731 0v3.59a11.974 11.974 0 0 0 2.48-4.14c.433-1.24.68-2.567.68-3.954s-.247-2.714-.68-3.953Zm-2.124 6.72a.74.74 0 1 1-1.481 0 .74.74 0 0 1 1.481 0ZM22.034 6.912a.741.741 0 1 1 0 1.482.741.741 0 0 1 0-1.482Zm-4.522 13.994h-5.385a4.868 4.868 0 0 1-2.883-.953 4.89 4.89 0 0 1-2.025-3.955 4.89 4.89 0 0 1 2.021-3.952 4.87 4.87 0 0 1 2.887-.957h5.385a4.87 4.87 0 0 1 2.886.957c.518.379.954.855 1.29 1.404V9.391a.366.366 0 0 1 .732 0v6.469c0 .016-.008.03-.01.046.001.031.01.06.01.093 0 1.63-.803 3.062-2.025 3.955a4.87 4.87 0 0 1-2.883.953Z" fill="url(#e)"/><path opacity=".8" d="M22.42 12.046v3.814c0 .016-.008.03-.01.045.001.032.01.062.01.094 0 1.629-.803 3.062-2.025 3.954h6.925c.433-1.24.68-2.566.68-3.953s-.247-2.714-.68-3.954h-4.9Zm2.035 7.46a.741.741 0 1 1 0-1.481.741.741 0 0 1 0 1.482ZM21.688 13.451v-1.405h-1.29c.518.38.954.856 1.29 1.405ZM9.244 19.953A4.89 4.89 0 0 1 7.22 16a4.89 4.89 0 0 1 2.021-3.953H4.68A11.955 11.955 0 0 0 4 16c0 1.387.247 2.714.68 3.953h4.564Z" fill="#74EBEB"/><path d="M9.812 15.999a2.789 2.789 0 1 0 5.578-.002 2.789 2.789 0 0 0-5.578.002Zm4.846 0a2.06 2.06 0 0 1-2.057 2.056A2.06 2.06 0 0 1 10.544 16 2.06 2.06 0 0 1 12.6 13.94 2.06 2.06 0 0 1 14.657 16Z" fill="#00AFDC"/><path d="M12.601 18.055A2.06 2.06 0 0 0 14.657 16a2.06 2.06 0 0 0-2.056-2.058A2.06 2.06 0 0 0 10.544 16a2.06 2.06 0 0 0 2.057 2.056Z" fill="#fff"/><path d="M17.286 14.808h1.596a.366.366 0 0 0 0-.732h-1.596a.366.366 0 1 0 0 .732ZM17.287 16.41h1.596a.365.365 0 1 0 0-.732h-1.596a.366.366 0 1 0 0 .732ZM18.882 17.28h-1.596a.366.366 0 0 0 0 .733h1.596a.366.366 0 0 0 0-.732Z" fill="#00AFDC"/><defs><linearGradient id="a" x1="3.975" y1="16.487" x2="34.283" y2="-13.821" gradientUnits="userSpaceOnUse"><stop stop-color="#00AFDC"/><stop offset="1" stop-color="#01DBDB"/></linearGradient><linearGradient id="b" x1="7.657" y1="34.676" x2="36.235" y2="6.097" gradientUnits="userSpaceOnUse"><stop stop-color="#00AFDC"/><stop offset="1" stop-color="#01DBDB"/></linearGradient><linearGradient id="c" x1="11.766" y1="30.269" x2="22.12" y2="19.914" gradientUnits="userSpaceOnUse"><stop stop-color="#00AFDC"/><stop offset="1" stop-color="#01DBDB"/></linearGradient><linearGradient id="d" x1="7.618" y1="8.978" x2="17.555" y2="-.959" gradientUnits="userSpaceOnUse"><stop stop-color="#00AFDC"/><stop offset="1" stop-color="#01DBDB"/></linearGradient><linearGradient id="e" x1="-4.758" y1="36.81" x2="60.255" y2="-28.202" gradientUnits="userSpaceOnUse"><stop stop-color="#00AFDC"/><stop offset="1" stop-color="#01DBDB"/></linearGradient></defs></svg>
